dist/svgs/geomicons-open/icons/expand.svg

<svg xmlns="http://www.w3.org/2000/svg" viewBox="0 0 32 32"><path d="M16 4h12v12l-4-4-4 4-4-4 4-4zM4 16l4 4 4-4 4 4-4 4 4 4H4z"/></svg>

<svg id="expand" xmlns="http://www.w3.org/2000/svg" viewBox="0 0 32 32" width="32" height="32" fill="currentcolor">
  <path d="M16 4 L28 4 L28 16 L24 12 L20 16 L16 12 L20 8z M4 16 L8 20 L12 16 L16 20 L12 24 L16 28 L4 28z"></path>
</svg>
